X:1
T:Guillame de Machaut 1300ca-1377
T:Gloria dalla Messa de Notre Dame
%%score 1 2 3 4
L:1/8
Q:1/4=120
M:4/2
K:C
V:1 treble nm="Triplum   (S/A)"
V:2 treble nm="Motetus  (Altus)"
V:3 treble-8 nm="Contratenor       (T/B)"
V:4 bass nm="Tenor  (B)"
V:1
 A16 | A16 | G12 E4 |[M:2/2] F4 ^G4 |[M:4/2] A16 |[M:2/2] A8 | F4 FGAG | A4 !courtesy!_BAGF | E8 | %9
w: Et|in|ter- *|ra *|pax|ho-|mi- ni- * * *|bus * * * *|bo-|
 A4 !courtesy!_BAGF | E2 D2 E2 F2 | E4 DCDB, |[M:3/2] ^C12 | D4 E2 D2 C2 D2 | E12 | %15
w: nae vo- * * *|lun- ta- tis Lau-|da- mus * * *|te,|Be- ne- di- ci- mus|te,|
 F2 G2 A4 !courtesy!_B A2 G | A12 | !courtesy!_BAGF E2 DE D2 ^C2 |[M:2/2] D8 | z8 | E8 | ^C4 D4 | %22
w: A- do- ra- mus * *|te,|Glo- * * * ri- fi- * ca- mus|te.||Gra-|ti- as|
 C2 D2 E4 | GFEF E2 D2 | ^C8 | E4 D4 | F2 G2 A4 | !courtesy!_BAGF E2 DE | D^CDB, C4 | D8 || A8 | %31
w: a- gi- mus|ti- * * * * *|bi|pro- pter|ma- * gnam|glo- * * * ri- * *|am * * * tu-|am.|Do-|
 A4 G4 | F4 E2 D2 | E4 GFED | ^C8 | D4 E4 | F E2 D F2 G2 | A4 A G2 F |[M:3/2] ^G12 | %39
w: mi- ne|De- us Rex|coe- le- * * *|stis|De- us|Pa- * * ter o-|mni- po- * *|tens|
 A2 A2 G2 F2 E2 D2 |[M:2/2] ^C4 CDCD |[M:3/2] E4 !courtesy!_BAGF E2 D2 |[M:4/2] C16 | D16 | E16 | %45
w: Do- mi- ne * Fi- *|li u- ni- ge- ni-|te * * * * * *|Je-|su|Chri-|
 D16 |[M:2/2] z8 | E8 | F4 E2 D2 | C2 D2 E2 F2 | E8 | A4 !courtesy!_BAGF | E2 D2 C2 D2 | E8 | %54
w: ste||Do-|mi- ne De-|us, A- gnus De-|i|Fi- * * * *|* * li- *|us|
 D4 ^C4 | D8 || A8 | B4 A2 GF | E2 D2 ^C4 | E8 | D8 | F2 G2 A4 | G4 F E2 D | E8 | z8 | E8 | F4 E4 | %67
w: Pa- *|tris.|Qui|tol- lis * *|pec- ca ta|mun-|di|mi- se- re-|re no- * *|bis.||Qui|tol- lis|
 D2 F2 E2 D2 | ^C8 | D^CDB, C2 B,C | D8 | D2 E2 F2 G2 | A4 F4 | ^G8 | A8 | !courtesy!_BAGF E2 D2 | %76
w: pec- ca- ta mun-|di,|su- * * * sci- * *|pe|de- pre- ca- ti-|o- nem|no-|stram.|Qui _ _ _ se- *|
 E8 | F4 G2 D2 | EFGF E2 D2 | ^C8 | ^C2 D2 E4 | D4 ^C4 | D8 || G4 G4 | F4 A2 GF | E2 D2 E4 | %86
w: des|ad dex- te-|ram * * * Pa- *|tris,|mi- se- re-|re no-|bis.|Quo- ni-|am tu _ _|so- lus San-|
[M:3/2] F12 | A4 G2 F2 E2 D2 | E12 |[M:2/2] G4 F4 | A2 GF E2 D2 |[M:3/2] ^C12 |[M:4/2] E16 | D16 | %94
w: ctus,|Tu so- lus Do- mi-|nus,|Tu so-|lus al- * tis- si-|mus,|Je-|su|
 E16 | ^C16 | D16 |[M:2/2] z8 | E4 F4 | E4 D4 |[M:3/2] F2 G2 A2 A2 AGAF | ^G12 |[M:2/2] A2 GF E4 | %103
w: Chri-||ste||Cum _|San- cto|Spi- ri- tu in glo- * ri- *|a|De- * * *|
 D4 ^C4 | D8 |[M:3/2] A12 | F12 | E4 D8 | E4 ^G8 | A12 | D4 z4 E4 | z4 A,4 B,4 | C4 z4 G4 | %113
w: i Pa-|tris.|A-||||||||
 z4 D4 F4 | E4 z4 ^C4 | D4 ^C8 | D12 | D4 ^G4 BA=GF | E12 | A4 z2 G2 F4 | z2 E2 G4 z2 E2 | %121
w: ||||||||
 D4 A,4 z4 | D4 A,4 z4 | E2 D2 z4 C2 D2 | E12 | z2 G2 z2 D2 z2 E2 | F E2 D2 F2 A2 G2 F | ^G12 | %128
w: |||||||
 A D2 F2 G2 F2 E2 D | ^C12 | D12 |] %131
w: ||men|
V:2
 D16 | F16 | E16 |[M:2/2] A,4 ^C4 |[M:4/2] D16 |[M:2/2] D8 | A,2 B,2 ^C4 | D8 | C8 | D4 A,4 | %10
w: Et|in|ter-|ra _|pax|ho-|mi- * ni-|bus|bo-|nae vo-|
 B,2 A,2 B,2 C2 | B,4 A,4 |[M:3/2] ^G,12 | A,4 C2 B,2 A,2 G,A, | B,12 | A,2 B,C D4 ^C4 | D12 | %17
w: lun- ta- tis Lau-|da- mus|te,|Be- ne- di- ci- mus _|te,|A- do- * ra- mus|te,|
 D4 C2 B,2 A,2 ^G,2 |[M:2/2] A,8 | z8 | C8 | E4 A,4 | A,2 G,A, B,4 | C4 A,4 | ^G,8 | C4 A,4 | %26
w: Glo- ri- fi- ca- mus|te.||Gra-|ti- as|a- gi- * mus|ti- *|bi|pro- pter|
 ^C4 D4 | C4 C2 B,2 | A,4 ^G,4 | A,8 || D8 | C4 E4 | D4 B,2 A,2 | B,4 D2 CD | E8 | A,4 B,4 | %36
w: ma- gnam|glo- ri- *|am tu-|am.|Do-|mi- ne|De- us Rex|coe- le- * *|stis|De- us|
 C4 D2 C2 | D4 CB,CA, |[M:3/2] ^C12 | E2 F2 E2 D2 C2 D2 |[M:2/2] E4 EFED |[M:3/2] C4 D4 C2 D2 | %42
w: Pa- ter o-|mni- po- * * *|tens|Do- mi- ne _ Fi- *|li u- ni- ge- ni-|te _ _ _|
[M:4/2] E16 | A,16 | G,16 | A,16 |[M:2/2] z8 | B,8 | A,4 C2 A,2 | A,2 B,2 C2 B,2 | C8 | D4 D2 C2 | %52
w: Je-|su|Chri-|ste||Do-|mi- ne De-|us, A- gnus De-|i|Fi- * *|
 B,4 A,4 | B,8 | A,4 G,4 | A,8 || F8 | E4 D4 | E2 F2 E2 DC | B,8 | A,8 | C2 C2 D4 | D4 CB,CA, | %63
w: * li-|us|Pa- *|tris.|Qui|tol- lis|pec- ca ta _ _|mun-|di|mi- se- re-|re no- * * *|
 B,8 | z8 | C8 | A,4 G,4 | G,2 A,B, C2 D2 | E8 | A,4 ^G,4 | A,8 | B,2 B,2 C2 C2 | D4 A,4 | ^C8 | %74
w: bis.||Qui|tol- lis|pec- ca- * ta mun-|di,|su- sci-|pe|de- pre- ca- ti-|o- nem|no-|
 D8 | D4 C4 | B,8 | CB,CA, B,2 B,2 | A,2 B,2 C2 D2 | E8 | E2 A,2 B,4 | A,4 ^G,4 | A,8 || %83
w: stram.|Qui se-|des|ad _ _ _ dex- te-|ram _ Pa- *|tris,|mi- se- re-|re no-|bis.|
 C4 C2 B,A, | C4 D4 | E2 DC B,4 |[M:3/2] C12 | D4 B,2 A,2 B,2 C2 | B,12 |[M:2/2] E4 C4 | %90
w: Quo- ni- * *|am tu|so- lus _ San-|ctus,|Tu so- lus Do- mi-|nus,|Tu so-|
 D2 D2 C2 D2 |[M:3/2] E12 |[M:4/2] C16 | A,16 | B,16 | ^G,16 | A,16 |[M:2/2] z8 | C4 A,4 | %99
w: lus al- tis- si-|mus,|Je-|su|Chri-||ste||Cum _|
 G,4 GFEF |[M:3/2] D2 C2 D2 D2 D2 ^CB, | ^C12 |[M:2/2] D2 C2 B,4 | A,4 ^G,4 | A,8 |[M:3/2] D12 | %106
w: San- cto _ _ _|Spi- ri- tu in glo- ri- *|a|De- * *|i Pa-|tris.|A-|
 D4 A,8 | B,4 A,8 | ^C12 | D4 A,8 | z4 D4 B,4 | C4 D8 | z4 E4 C4 | B,4 A,8 | z4 ^G,4 A,4 | %115
w: |||||||||
 F,4 ^G,8 | A,12 | D2 C2 B,4 A,4 | B,12 | z2 D2 A,4 z2 B,2 | C4 z2 E2 C4 | z4 D4 A,4 | z4 D4 A,4 | %123
w: ||||||||
 z4 E2 D2 z4 | ^C12 | E2 z2 D2 z2 B,2 z2 | C2 A,4 D4 A,2 | ^C12 | D2 A,4 B,4 A,2 | ^G,12 | A,12 |] %131
w: |||||||men.|
V:3
 A16 | F16 | G16 |[M:2/2] F4 E4 |[M:4/2] D16 |[M:2/2] D8 | F4 E4 | D8 | A8 | D4 F4 | G2 A2 G2 F2 | %11
w: Et|in|ter-|ra _|pax|ho-|mi- ni-|bus|bo-|nae vo-|lun- ta- tis Lau-|
 G4 D4 |[M:3/2] E12 | D4 C2 G2 F2 F2 | E12 | F2 E2 D4 A4 | D12 | D2 G2 A2 E2 F2 E2 |[M:2/2] D8 | %19
w: da- mus|te,|Be- ne- di- ci- mus|te,|A- do- ra- mus|te,|Glo- * ri- fi- ca- mus|te.|
 A2 GF E2 D2 | C8 | E4 D4 | F2 F2 E4 | C4 G2 F2 | E8 | C4 F4 | E4 D4 | F2 G2 A4 | D4 E4 | D8 || %30
w: Gra- * * ti- as|Gra-|ti- as|a- gi- mus|ti- * *|bi|pro- pter|ma- gnam|glo- * ri-|am tu-|am.|
 D8 | F4 E4 | F4 G2 A2 | G4 F4 | E8 | D4 G4 | F4 F2 E2 | D4 F4 |[M:3/2] E12 | D2 D2 E2 F2 G2 F2 | %40
w: Do-|mi- ne|De- us Rex|coe- le-|stis|De- us|Pa- ter o-|mni- po-|tens|Do- mi- ne _ Fi- *|
[M:2/2] E4 AGAF |[M:3/2] E4 F4 G2 D2 |[M:4/2] C16 | F16 | E16 | D16 |[M:2/2] D2 EF G2 A2 | G8 | %48
w: li u- ni- ge- ni-|te _ _ _|Je-|su|Chri-|ste|Do- * * mi- ne|Do-|
 D4 C2 D2 | A2 GF E2 D2 | C8 | D4 D2 F2 | E2 G2 A2 GF | G8 | F4 E4 | D8 || F8 | G4 D4 | G2 F2 A4 | %59
w: mi- ne De-|us, A- * gnus De-|i|Fi- * *|* * li- * *|us|Pa- *|tris.|Qui|tol- lis|pec- ca ta|
 G8 | D8 | F2 E2 D4 | G4 A2 GF | E8 | A2 GF E2 D2 | C8 | D4 E4 | G2 F2 A2 GF | E8 | F4 E4 | D8 | %71
w: mun-|di|mi- se- re-|re no- * *|bis.|Qui _ _ tol- lis|Qui|tol- lis|pec- ca- ta mun- *|di,|su- sci-|pe|
 G2 G2 F2 E2 | D4 F4 | E8 | D8 | D2 EF G2 A2 | G8 | F4 E2 G2 | A2 G2 G2 F2 | E8 | A2 A2 G4 | %81
w: de- pre- ca- ti-|o- nem|no-|stram.|Qui _ _ se- *|des|ad dex- te-|ram _ Pa- *|tris,|mi- se- re-|
 D4 E4 | D8 || C4 D4 | F4 D4 | G2 A2 G4 |[M:3/2] F12 | D4 G2 A2 G2 F2 | E12 |[M:2/2] E4 F4 | %90
w: re no-|bis.|Quo- ni-|am tu|so- lus San-|ctus,|Tu so- lus Do- mi-|nus,|Tu so-|
 D2 F2 G2 F2 |[M:3/2] E12 |[M:4/2] C16 | F16 | E16 | E16 | D16 |[M:2/2] A2 GF E2 D2 | C4 D4 | %99
w: lus al- tis- si-|mus,|Je-|su|Chri-||ste|Cum _ _ San- cto|Cum _|
 E4 G4 |[M:3/2] F2 E2 D2 G2 D2 F2 | E12 |[M:2/2] D4 G4 | F4 E4 | D8 |[M:3/2] D12- | D12 | G4 F8 | %108
w: San- cto|Spi- ri- tu in glo- ri-|a|De- *|i Pa-|tris.|A-|||
 E12 | D4 F8 | G12 | E4 D8 | C12 | G4 D8 | E12 | F4 E8 | D12 | z12 | G12 | D12 | C12 | D12- | D12 | %123
w: |||||||||||||||
 G8 F4 | E12 | C4 G8 | C4 D4 F4 | E12 | D4 G4 F4 | E12 | D12 |] %131
w: |||||||men|
V:4
 D,16 | D,16 | E,16 |[M:2/2] D,4 ^C,4 |[M:4/2] D,16 |[M:2/2] A,8 | D,4 A, G,2 F, | A,8 | E,8 | %9
w: Et|in|ter-|ra _|pax|ho-|mi- ni- * *|bus|bo-|
 F,4 D,4 | C,2 D,2 C,2 D,2 | E,4 F,2 E,D, |[M:3/2] ^C,12 | F,4 G,2 G,2 D,2 D,2 | E,4 G,8 | %15
w: nae vo-|lun- ta- tis Lau-|da- mus _ _|te,|Be- ne- di- ci- mus|te, _|
 F,2 G,2 A,2 G,F, E,4 | A,12 | G,2 E,2 C,2 E,2 D,2 ^C,2 |[M:2/2] D,8 | D,2 E,F, G,2 A,2 | G,8 | %21
w: A- do- ra- * * mus|te,|Glo- * ri- fi- ca- mus|te.|Gra- * * ti- as|Gra-|
 G,4 A,4 | F,2 A,2 G,4 | E,4 D,4 | ^C,8 | G,4 F,4 | G,4 A,4 | F,4 E,4 | F,2 E,D, ^C,4 | D,8 || %30
w: ti- as|a- gi- mus|ti- *|bi|pro- pter|ma- gnam|glo- ri-|am _ _ tu-|am.|
 A,8 | A,4 G,4 | A,2 G,A, G,2 F,2 | E,4 D,4 | ^C,8 | F,4 E,4 | D,4 F,2 G,2 | A,4 F,2 E,D, | %38
w: Do-|mi- ne|De- * * us Rex|coe- le-|stis|De- us|Pa- ter o-|mni- po- * *|
[M:3/2] ^C,12 | A,2 F,2 G,2 D,2 C,2 D,2 |[M:2/2] ^C,4 C,C,F,F, |[M:3/2] G,4 D,4 C,2 D,2 | %42
w: tens|Do- mi- ne _ Fi- *|li u- ni- ge- ni-|te _ _ _|
[M:4/2] E,16 | D,16 | C,16 | D,16 |[M:2/2] A,2 G,F, E,2 D,2 | C,8 | G,4 G,2 F,E, | %49
w: Je-|su|Chri-|ste|Do- * * mi- ne|Do-|mi- ne De- *|
 D,2 D,2 C,2 D,2 | E,8 | A,8 | G,4 F,2 E,D, | C,8 | D,4 ^C,4 | D,8 || D,8 | E,4 F,4 | %58
w: us, A- gnus De-|i|Fi-|* li- * *|us|Pa- *|tris.|Qui|tol- lis|
 C,2 D,2 ^C,2 D,2 | E,8 | A,4 F,4 | A,2 G,2 A,4 | G,2 F,E, D,2 F,2 | E,4 G,4 | D,2 E,F, G,2 A,2 | %65
w: pec- ca ta _|mun-|di _|mi- se- re-|re _ _ no- *|bis. _|Qui _ _ tol- lis|
 G,8 | F,4 E,4 | C,2 D,2 C,2 D,2 | ^C,8 | D,4 ^C,4 | D,4 F,4 | E,2 E,2 A,2 G,2 | A,4 D,4 | ^C,8 | %74
w: Qui|tol- lis|pec- ca- ta mun-|di,|su- sci-|pe _|de- pre- ca- ti-|o- nem|no-|
 D,8 | A,4 G,2 F,2 | E,8 | D,4 C,2 D,2 | F,2 E,2 C,2 D,2 | ^C,8 | F,2 F,2 C,4 | F,4 ^C,4 | D,8 || %83
w: stram.|Qui se- *|des|ad dex- te-|ram _ Pa- *|tris,|mi- se- re-|re no-|bis.|
 G,4 G,4 | A,4 A,4 | C,2 D,2 E,4 |[M:3/2] F,12 | A,4 E,2 D,2 C,2 D,2 | E,12 |[M:2/2] G,4 F,4 | %90
w: Quo- ni-|am tu|so- lus San-|ctus,|Tu so- lus Do- mi-|nus,|Tu so-|
 A,2 D,2 E,2 D,2 |[M:3/2] ^C,12 |[M:4/2] G,16 | D,16 | G,16 | ^C,16 | D,16 | %97
w: lus al- tis- si-|mus,|Je-|su|Chri-||ste|
[M:2/2] D,2 E,F, G,2 A,2 | G,4 F,4 | E,4 C,4 |[M:3/2] D,2 G,2 D,2 D,2 F,2 D,2 | ^C,12 | %102
w: Cum _ _ San- cto|Cum _|San- cto|Spi- ri- tu in glo- ri-|a|
[M:2/2] A,4 E,4 | D,4 ^C,4 | D,8 |[M:3/2] A,12 | z4 F,4 D,4 | E,4 D,8 | ^C,12 | A,12 | %110
w: De- *|i Pa-|tris.|A-|||||
 E,2 C,4 D,4 E,2 | G,4 ^F,8 | G,2 A,4 G,4 F,2 | E,4 F,8 | E,2 ^C,4 C,4 E,2 | D,4 ^C,8 | D,4 F,8 | %117
w: |||||||
 G,8 F,4 | E,12 | A,A, z F, A,2 z D, A,G, z F, | G,2 z G, C B,2 A, G,3 F, | A,2 F,4 A,4 D2- | %122
w: |||||
 D2 A,4 D4 C2 | z B,2 D2 B,2 C2 A,2 A, | ^G,12 | A, E,2 G,2 C,2 D,2 E,2 F, | G,4 A,8 | ^G,12 | %128
w: ||||||
 A,4 E,4 D,4 | ^C,12 | D,12 |] %131
w: ||men.|

